icons/breezeDark/toolpath/pock_rast_conv.svg

<svg height="75" viewBox="0 0 19.84375 19.843751" width="75" xmlns="http://www.w3.org/2000/svg"><g transform="translate(0 -277.15623)"><path d="m37 23v1h16v-1zm-13 2v1h26v7h-26v9h26v7h-26v1h27v-9h-26v-7h26v-9z" fill="#da4453" transform="matrix(.26458334 0 0 .26458334 0 277.15623)"/><path d="m15 15v45h45v-45zm1 1h21.464844a7.4999998 7.4999998 0 0 0 -7.464844 7.5 7.4999998 7.4999998 0 0 0 7.5 7.5 7.4999998 7.4999998 0 0 0 7.5-7.5 7.4999998 7.4999998 0 0 0 -7.5-7.5h21.5v43h-43z" fill="#c0c0c0" stroke-width=".989072" transform="matrix(.26458334 0 0 .26458334 0 277.15623)"/><circle cx="9.921935" cy="283.3739" fill="#3daee9" r="1.719792" stroke-width=".264583"/><path d="m28 19v1l7.5 3h-13.5v29h31v-29h-1v28h-29v-27h12.5l-7.5 3v1l8.488281-3.394531c.276129.253152.637039.394002 1.011719.394531.828428 0 1.5-.671565 1.5-1.5s-.671572-1.5-1.5-1.5c-.374679.000567-.735586.141303-1.011719.394531zm12 4v1h3v-1z" fill="#da4453" transform="matrix(.26458334 0 0 .26458334 0 277.15623)"/></g></svg>

<?xml version="1.0" encoding="UTF-8" standalone="no"?>
<svg
   xmlns:dc="http://purl.org/dc/elements/1.1/"
   xmlns:cc="http://creativecommons.org/ns#"
   xmlns:rdf="http://www.w3.org/1999/02/22-rdf-syntax-ns#"
   xmlns:svg="http://www.w3.org/2000/svg"
   xmlns="http://www.w3.org/2000/svg"
   xmlns:sodipodi="http://sodipodi.sourceforge.net/DTD/sodipodi-0.dtd"
   xmlns:inkscape="http://www.inkscape.org/namespaces/inkscape"
   sodipodi:docname="pock_rast_conv.svg"
   inkscape:version="1.0beta1 (fe3e306, 2019-09-17)"
   id="svg8"
   version="1.1"
   viewBox="0 0 19.84375 19.843751"
   height="75"
   width="75">
  <defs
     id="defs2" />
  <sodipodi:namedview
     inkscape:document-rotation="0"
     inkscape:snap-bbox="true"
     inkscape:snap-object-midpoints="false"
     inkscape:snap-center="false"
     inkscape:window-maximized="0"
     inkscape:window-y="0"
     inkscape:window-x="697"
     inkscape:window-height="1042"
     inkscape:window-width="1207"
     showguides="false"
     units="px"
     showgrid="true"
     inkscape:current-layer="layer1"
     inkscape:document-units="px"
     inkscape:cy="37.923561"
     inkscape:cx="34.248043"
     inkscape:zoom="16.000001"
     inkscape:pageshadow="2"
     inkscape:pageopacity="0.0"
     borderopacity="1.0"
     bordercolor="#666666"
     pagecolor="#ffffff"
     id="base">
    <inkscape:grid
       id="grid10"
       type="xygrid" />
  </sodipodi:namedview>
  <metadata
     id="metadata5">
    <rdf:RDF>
      <cc:Work
         rdf:about="">
        <dc:format>image/svg+xml</dc:format>
        <dc:type
           rdf:resource="http://purl.org/dc/dcmitype/StillImage" />
        <dc:title />
      </cc:Work>
    </rdf:RDF>
  </metadata>
  <g
     transform="translate(0,-277.15623)"
     id="layer1"
     inkscape:groupmode="layer"
     inkscape:label="Layer 1">
    <path
       transform="matrix(0.26458334,0,0,0.26458334,0,277.15623)"
       d="M 37 23 L 37 24 L 53 24 L 53 23 L 37 23 z M 24 25 L 24 26 L 50 26 L 50 33 L 24 33 L 24 42 L 50 42 L 50 49 L 24 49 L 24 50 L 51 50 L 51 41 L 25 41 L 25 34 L 51 34 L 51 25 L 24 25 z "
       style="fill:#da4453;fill-opacity:1;stroke:none;stroke-width:21.0654;stroke-miterlimit:4;stroke-dasharray:none;stroke-opacity:1"
       id="rect4585-9" />
    <path
       transform="matrix(0.26458334,0,0,0.26458334,0,277.15623)"
       d="M 15 15 L 15 60 L 60 60 L 60 15 L 15 15 z M 16 16 L 37.464844 16 A 7.4999998 7.4999998 0 0 0 30 23.5 A 7.4999998 7.4999998 0 0 0 37.5 31 A 7.4999998 7.4999998 0 0 0 45 23.5 A 7.4999998 7.4999998 0 0 0 37.5 16 L 59 16 L 59 59 L 16 59 L 16 16 z "
       style="stroke-width:0.989072;fill:#c0c0c0;fill-opacity:1"
       id="rect14" />
    <circle
       r="1.7197917"
       cy="283.3739"
       cx="9.9219351"
       id="path24"
       style="fill:#3daee9;stroke-width:0.26458335;fill-opacity:1" />
    <path
       transform="matrix(0.26458334,0,0,0.26458334,0,277.15623)"
       d="M 28 19 L 28 20 L 35.5 23 L 22 23 L 22 52 L 53 52 L 53 23 L 52 23 L 52 51 L 23 51 L 23 24 L 35.5 24 L 28 27 L 28 28 L 36.488281 24.605469 C 36.76441 24.858621 37.12532 24.999471 37.5 25 C 38.328428 25 39 24.328435 39 23.5 C 39 22.671565 38.328428 22 37.5 22 C 37.125321 22.000567 36.764414 22.141303 36.488281 22.394531 L 28 19 z M 40 23 L 40 24 L 43 24 L 43 23 L 40 23 z "
       style="fill:#da4453;fill-opacity:1;stroke:none;stroke-width:16;stroke-miterlimit:4;stroke-dasharray:none;stroke-opacity:1"
       id="rect4559" />
  </g>
</svg>
